;FLAVOR:Marlin
;TIME:10324
;Filament used: 7.50485m
;Layer height: 0.15
;MINX:60.297
;MINY:62.894
;MINZ:0.2
;MAXX:184.221
;MAXY:140.298
;MAXZ:10.1
;Generated with Cura_SteamEngine 5.0.0
M82 ;absolute extrusion mode
G21 ; set units to millimeters
G90 ; use absolute positioning
M82 ; absolute extrusion mode
M104 S200 ; set extruder temp
M140 S60 ; set bed temp
M190 S60 ; wait for bed temp
M109 S200 ; wait for extruder temp
G28 W ; home all without mesh bed level
G80 ; mesh bed leveling
G92 E0.0 ; reset extruder distance position
G1 Y-3.0 F1000.0 ; go outside print area
G1 X60.0 E9.0 F1000.0 ; intro line
G1 X100.0 E21.5 F1000.0 ; intro line
G92 E0.0 ; reset extruder distance position
G92 E0
G92 E0
G1 F2100 E-0.8
;LAYER_COUNT:67
;LAYER:0
M107
G0 F3600 X68.186 Y68.9 Z0.2
G0 X66.693 Y73.177
;TYPE:SKIRT
G1 F2100 E0
G1 F1800 X66.703 Y72.449 E0.02422
G1 X66.785 Y71.649 E0.05096
G1 X66.927 Y71.036 E0.07189
G1 X67.15 Y70.438 E0.09312
G1 X67.579 Y69.647 E0.12305
G1 X68.186 Y68.9 E0.15506
G1 X68.972 Y68.159 E0.19099
G1 X70.115 Y67.126 E0.24223
G1 X72.065 Y65.259 E0.33202
G1 X73.466 Y63.854 E0.39802
G1 X73.85 Y63.526 E0.41481
G1 X74.281 Y63.262 E0.43162
G1 X74.749 Y63.069 E0.44846
G1 X75.241 Y62.952 E0.46528
G1 X75.917 Y62.9 E0.48783
G1 X99.893 Y62.894 E1.28528
G1 X100.615 Y62.905 E1.30929
G1 X100.834 Y62.916 E1.31659
G1 X103.413 Y63.133 E1.40267
G1 X106.138 Y63.287 E1.49345
G1 X108.891 Y63.365 E1.58505
G1 X111.608 Y63.365 E1.67542
G1 X114.351 Y63.287 E1.76668
G1 X118.171 Y63.05 E1.89398
G1 X119.338 Y62.955 E1.93293
G1 X119.538 Y62.945 E1.93959
G1 X120.706 Y62.923 E1.97844
G1 X137.771 Y62.918 E2.54602
G1 X139.542 Y62.943 E2.60493
G1 X139.988 Y62.956 E2.61977
G1 X142.71 Y62.958 E2.71031
G1 X143.502 Y62.937 E2.73666
G1 X144.974 Y62.919 E2.78562
G1 X155.279 Y62.92 E3.12837
G1 X157.026 Y62.94 E3.18648
G1 X157.925 Y62.963 E3.21639
G1 X160.661 Y62.954 E3.30739
G1 X161.594 Y62.929 E3.33843
G1 X162.508 Y62.919 E3.36883
G1 X179.749 Y62.931 E3.94227
G1 X180.452 Y62.941 E3.96566
G1 X180.955 Y62.988 E3.98246
G1 X181.629 Y63.172 E4.0057
G1 X182.097 Y63.363 E4.02251
G1 X182.67 Y63.734 E4.04521
G1 X183.226 Y64.235 E4.0701
G1 X183.638 Y64.81 E4.09363
G1 X183.984 Y65.51 E4.1196
G1 X184.135 Y66.072 E4.13896
G1 X184.212 Y66.751 E4.16169
G1 X184.221 Y67.449 E4.1849
G1 X184.219 Y135.776 E6.45747
G1 X184.207 Y136.527 E6.48245
G1 X184.159 Y137.03 E6.49926
G1 X183.966 Y137.724 E6.52321
G1 X183.771 Y138.191 E6.54005
G1 X183.39 Y138.77 E6.5631
G1 X182.88 Y139.324 E6.58814
G1 X182.305 Y139.727 E6.6115
G1 X181.607 Y140.064 E6.63728
G1 X181.032 Y140.215 E6.65705
G1 X180.434 Y140.281 E6.67706
G1 X179.69 Y140.292 E6.70181
G1 X173.934 Y140.297 E6.89326
G1 X172.133 Y140.273 E6.95316
G1 X171.696 Y140.261 E6.9677
G1 X168.966 Y140.261 E7.0585
G1 X168.041 Y140.285 E7.08928
G1 X166.959 Y140.297 E7.12527
G1 X133.224 Y140.298 E8.2473
G1 X131.239 Y140.275 E8.31333
G1 X131.116 Y140.283 E8.31742
G1 X129.691 Y140.255 E8.36483
G1 X128.33 Y140.265 E8.4101
G1 X126.055 Y140.296 E8.48577
G1 X120.325 Y140.292 E8.67635
G1 X119.54 Y140.278 E8.70247
G1 X119.097 Y140.259 E8.71721
G1 X116.307 Y140.177 E8.81005
G1 X113.026 Y140.181 E8.91918
G1 X111.927 Y140.201 E8.95573
G1 X64.291 Y140.202 E10.54011
G1 X63.594 Y140.193 E10.5633
G1 X63.09 Y140.146 E10.58013
G1 X62.6 Y140.021 E10.59695
G1 X62.136 Y139.82 E10.61377
G1 X61.71 Y139.549 E10.63057
G1 X61.331 Y139.214 E10.64739
G1 X61.01 Y138.823 E10.66422
G1 X60.755 Y138.387 E10.68101
G1 X60.54 Y137.806 E10.70162
G1 X60.355 Y136.967 E10.7302
G1 X60.307 Y136.404 E10.74899
G1 X60.297 Y135.868 E10.76682
G1 X60.297 Y134.107 E10.82539
G1 X60.31 Y133.326 E10.85137
G1 X60.366 Y132.734 E10.87115
G1 X60.474 Y132.196 E10.8894
G1 X60.835 Y131.08 E10.92841
G1 X61.451 Y129.36 E10.98918
G1 X62.303 Y126.757 E11.08027
G1 X63.08 Y124.135 E11.17123
G1 X63.786 Y121.479 E11.26264
G1 X64.422 Y118.777 E11.35496
G1 X64.967 Y116.133 E11.44475
G1 X65.439 Y113.462 E11.53496
G1 X65.844 Y110.725 E11.62699
G1 X66.169 Y107.993 E11.71849
G1 X66.412 Y105.293 E11.80866
G1 X66.583 Y102.538 E11.90047
G1 X66.673 Y99.826 E11.99072
G1 X66.692 Y97.915 E12.05428
G1 X66.693 Y73.177 E12.87707
G1 F2100 E12.07707
;MESH:case A.stl
G0 F3600 X66.737 Y130.794
G0 X66.738 Y131.869
G0 X69.446 Y132.067
G1 F2100 E12.87707
G0 F3600 X69.446 Y131.656
;TYPE:WALL-OUTER
G1 F1800 X65.636 Y131.659 E13.00379
G1 X65.152 Y131.694 E13.01993
G1 X64.82 Y131.794 E13.03147
G1 X64.362 Y132.066 E13.04918
G1 X64.019 Y132.451 E13.06633
G1 X63.777 Y132.941 E13.08451
G1 X63.697 Y133.467 E13.1022
G1 X63.697 Y136.352 E13.19816
G1 X63.78 Y136.803 E13.21341
G1 X112.279 Y136.802 E14.8265
G1 X112.669 Y136.775 E14.8395
G1 X112.731 Y136.35 E14.85378
G1 X112.733 Y133.43 E14.9509
G1 X112.596 Y132.772 E14.97326
G1 X112.34 Y132.35 E14.98967
G1 X112.213 Y132.193 E14.99639
G1 X111.787 Y131.878 E15.01401
G1 X111.283 Y131.695 E15.03185
G1 X110.163 Y131.659 E15.06912
G1 X106.991 Y131.658 E15.17462
G1 X106.667 Y131.546 E15.18602
G1 X106.406 Y131.254 E15.19905
G1 X106.342 Y131.011 E15.2074
G1 X106.339 Y72.534 E17.15236
G1 X106.253 Y72.006 E17.17015
G1 X106.035 Y71.527 E17.18765
G1 X105.815 Y71.255 E17.19929
G1 X105.385 Y70.937 E17.21708
G1 X105.056 Y70.802 E17.2289
G1 X104.531 Y70.723 E17.24656
G1 X101.005 Y70.721 E17.36384
G1 X100.687 Y70.617 E17.37497
G1 X100.42 Y70.318 E17.3883
G1 X100.356 Y70.076 E17.39662
G1 X100.353 Y66.294 E17.52241
G1 X75.936 Y66.295 E18.33453
G1 X75.934 Y70.071 E18.46012
G1 X75.894 Y70.259 E18.46651
G1 X75.757 Y70.489 E18.47541
G1 X75.536 Y70.654 E18.48459
G1 X75.289 Y70.72 E18.49309
G1 X71.906 Y70.723 E18.60561
G1 X71.378 Y70.809 E18.6234
G1 X70.898 Y71.026 E18.64092
G1 X70.622 Y71.25 E18.65275
G1 X70.32 Y71.671 E18.66998
G1 X70.129 Y72.17 E18.68775
G1 X70.093 Y72.627 E18.703
G1 X70.091 Y131.006 E20.64469
G1 X70.013 Y131.287 E20.65439
G1 X69.736 Y131.57 E20.66756
G1 X69.446 Y131.656 E20.67762
G0 F3600 X69.246 Y131.656
G0 X69.946 Y131.91
;TYPE:WALL-INNER
G1 F1800 X69.549 Y132.048 E20.6916
G1 X69.446 Y132.056 E20.69504
G1 X65.65 Y132.059 E20.82129
G1 X65.11 Y132.124 E20.83938
G1 X64.609 Y132.384 E20.85816
G1 X64.339 Y132.693 E20.8718
G1 X64.165 Y133.049 E20.88498
G1 X64.097 Y133.497 E20.90005
G1 X64.098 Y136.335 E20.99445
G1 X64.105 Y136.403 E20.99672
G1 X112.323 Y136.401 E22.60046
G1 X112.331 Y136.35 E22.60217
G1 X112.333 Y133.45 E22.69863
G1 X112.22 Y132.916 E22.71678
G1 X111.934 Y132.484 E22.73402
G1 X111.596 Y132.234 E22.748
G1 X111.193 Y132.088 E22.76225
G1 X110.163 Y132.059 E22.79653
G1 X106.991 Y132.058 E22.90203
G1 X106.638 Y131.979 E22.91406
G1 X106.386 Y131.831 E22.92378
G1 X106.079 Y131.498 E22.93884
G1 X105.947 Y131.094 E22.95298
G1 X105.942 Y131.011 E22.95574
G1 X105.939 Y72.554 E24.90003
G1 X105.867 Y72.114 E24.91486
G1 X105.7 Y71.749 E24.92821
G1 X105.416 Y71.458 E24.94174
G1 X105.067 Y71.239 E24.95544
G1 X104.501 Y71.123 E24.97466
G1 X101.005 Y71.121 E25.09093
G1 X100.595 Y71.024 E25.10495
G1 X100.398 Y70.894 E25.1128
G1 X100.088 Y70.554 E25.1281
G1 X99.963 Y70.171 E25.1415
G1 X99.956 Y70.076 E25.14467
G1 X99.953 Y66.694 E25.25715
G1 X76.336 Y66.695 E26.04266
G1 X76.334 Y70.071 E26.15495
G1 X76.249 Y70.444 E26.16767
G1 X76.049 Y70.764 E26.18022
G1 X75.703 Y71.018 E26.1945
G1 X75.289 Y71.12 E26.20868
G1 X71.925 Y71.123 E26.32056
G1 X71.494 Y71.192 E26.33508
G1 X71.12 Y71.361 E26.34873
G1 X70.818 Y71.643 E26.36248
G1 X70.604 Y71.988 E26.37598
G1 X70.501 Y72.473 E26.39247
G1 X70.493 Y72.627 E26.3976
G1 X70.491 Y131.006 E28.33929
G1 X70.416 Y131.354 E28.35113
G1 X70.265 Y131.612 E28.36107
G1 X69.946 Y131.91 E28.37559
G0 F3600 X69.95 Y131.918
G0 X99.895 Y70.93
;TYPE:SKIN
G1 F1800 X99.672 Y70.535 E28.39068
G1 X99.576 Y70.077 E28.40625
G1 X99.573 Y67.074 E28.50613
G1 X76.716 Y67.075 E29.26635
G1 X76.713 Y70.096 E29.36683
G1 X76.663 Y70.407 E29.37731
G1 X76.454 Y70.865 E29.39405
G1 X76.097 Y71.222 E29.41084
G1 X75.748 Y71.405 E29.42395
G1 X75.288 Y71.5 E29.43957
G1 X72.005 Y71.502 E29.54877
G1 X71.508 Y71.589 E29.56555
G1 X71.178 Y71.807 E29.5787
G1 X70.96 Y72.131 E29.59169
G1 X70.873 Y72.691 E29.61054
G1 X70.871 Y131.019 E31.55054
G1 X70.715 Y131.624 E31.57132
G1 X70.338 Y132.079 E31.59097
G1 X69.905 Y132.34 E31.60779
G1 X69.445 Y132.436 E31.62342
G1 X65.67 Y132.439 E31.74897
G1 X65.219 Y132.493 E31.76408
G1 X64.868 Y132.695 E31.77755
G1 X64.71 Y132.825 E31.78436
G1 X64.578 Y133.051 E31.79306
G1 X64.478 Y133.533 E31.80943
G1 X64.477 Y136.023 E31.89225
G1 X111.951 Y136.021 E33.47124
G1 X111.953 Y133.501 E33.55506
G1 X111.861 Y133.054 E33.57024
G1 X111.734 Y132.846 E33.57834
G1 X111.405 Y132.568 E33.59267
G1 X110.88 Y132.44 E33.61064
G1 X106.994 Y132.439 E33.73989
G1 X106.699 Y132.394 E33.74982
G1 X106.272 Y132.223 E33.76511
G1 X105.877 Y131.854 E33.78309
G1 X105.652 Y131.459 E33.79821
G1 X105.562 Y131.011 E33.81341
G1 X105.56 Y72.632 E35.7551
G1 X105.472 Y72.137 E35.77183
G1 X105.266 Y71.824 E35.78429
G1 X104.921 Y71.594 E35.79808
G1 X104.348 Y71.503 E35.81738
G1 X100.991 Y71.501 E35.92903
G1 X100.82 Y71.482 E35.93475
G1 X100.331 Y71.315 E35.95194
G1 X99.895 Y70.93 E35.97129
G0 F3600 X105.337 Y72.527
G1 F1800 X104.529 Y71.719 E36.00929
G0 F3600 X103.946 Y71.702
G1 F1800 X105.361 Y73.116 E36.07583
G0 F3600 X105.361 Y73.682
G1 F1800 X103.381 Y71.702 E36.16896
G0 F3600 X102.814 Y71.702
G1 F1800 X105.361 Y74.248 E36.28874
G0 F3600 X105.361 Y74.814
G1 F1800 X102.249 Y71.702 E36.43512
G0 F3600 X101.682 Y71.701
G1 F1800 X105.361 Y75.379 E36.60814
G0 F3600 X105.361 Y75.945
G1 F1800 X101.116 Y71.701 E36.80779
G0 F3600 X100.375 Y71.525
G1 F1800 X105.361 Y76.511 E37.04232
G0 F3600 X105.361 Y77.076
G1 F1800 X95.559 Y67.274 E37.50337
G0 F3600 X96.124 Y67.274
G1 F1800 X99.532 Y70.682 E37.66368
G0 F3600 X99.375 Y69.959
G1 F1800 X96.69 Y67.274 E37.78997
G0 F3600 X97.256 Y67.274
G1 F1800 X99.375 Y69.394 E37.88966
G0 F3600 X99.374 Y68.827
G1 F1800 X97.821 Y67.274 E37.96271
G0 F3600 X98.387 Y67.274
G1 F1800 X99.373 Y68.261 E38.00911
G0 F3600 X99.373 Y67.694
G1 F1800 X98.953 Y67.274 E38.02887
G0 F3600 X94.993 Y67.274
G1 F1800 X105.361 Y77.642 E38.51655
G0 F3600 X105.361 Y78.208
G1 F1800 X94.427 Y67.274 E39.03085
G0 F3600 X93.862 Y67.274
G1 F1800 X105.361 Y78.773 E39.57173
G0 F3600 X105.361 Y79.339
G1 F1800 X93.296 Y67.274 E40.13923
G0 F3600 X92.73 Y67.274
G1 F1800 X105.361 Y79.905 E40.73335
G0 F3600 X105.361 Y80.47
G1 F1800 X92.165 Y67.274 E41.35405
G0 F3600 X91.599 Y67.274
G1 F1800 X105.361 Y81.036 E42.00137
G0 F3600 X105.361 Y81.602
G1 F1800 X91.033 Y67.274 E42.67532
G0 F3600 X90.467 Y67.274
G1 F1800 X105.361 Y82.167 E43.37586
G0 F3600 X105.361 Y82.733
G1 F1800 X89.902 Y67.274 E44.10301
G0 F3600 X89.336 Y67.274
G1 F1800 X105.361 Y83.299 E44.85677
G0 F3600 X105.361 Y83.864
G1 F1800 X88.77 Y67.274 E45.63714
G0 F3600 X88.205 Y67.274
G1 F1800 X105.361 Y84.43 E46.44411
G0 F3600 X105.361 Y84.996
G1 F1800 X87.639 Y67.274 E47.2777
G0 F3600 X87.073 Y67.274
G1 F1800 X105.361 Y85.562 E48.13791
G0 F3600 X105.361 Y86.127
G1 F1800 X86.508 Y67.274 E49.02469
G0 F3600 X85.942 Y67.274
G1 F1800 X105.361 Y86.693 E49.9381
G0 F3600 X105.361 Y87.259
G1 F1800 X85.376 Y67.274 E50.87814
G0 F3600 X84.811 Y67.274
G1 F1800 X105.361 Y87.824 E51.84475
G0 F3600 X105.361 Y88.39
G1 F1800 X84.245 Y67.274 E52.83798
G0 F3600 X83.679 Y67.274
G1 F1800 X105.361 Y88.956 E53.85783
G0 F3600 X105.361 Y89.521
G1 F1800 X83.114 Y67.274 E54.90426
G0 F3600 X82.548 Y67.274
G1 F1800 X105.361 Y90.087 E55.97732
G0 F3600 X105.361 Y90.653
G1 F1800 X81.982 Y67.274 E57.07699
G0 F3600 X81.416 Y67.274
G1 F1800 X105.361 Y91.218 E58.20327
G0 F3600 X105.361 Y91.784
G1 F1800 X80.851 Y67.274 E59.35615
G0 F3600 X80.285 Y67.274
G1 F1800 X105.361 Y92.35 E60.53564
G0 F3600 X105.361 Y92.915
G1 F1800 X79.719 Y67.274 E61.74174
G0 F3600 X79.154 Y67.274
G1 F1800 X105.361 Y93.481 E62.97444
G0 F3600 X105.361 Y94.047
G1 F1800 X78.588 Y67.274 E64.23376
G0 F3600 X78.022 Y67.274
G1 F1800 X105.361 Y94.613 E65.5197
G0 F3600 X105.361 Y95.178
G1 F1800 X77.457 Y67.274 E66.83222
G0 F3600 X76.914 Y67.298
G1 F1800 X105.361 Y95.744 E68.17026
G0 F3600 X105.361 Y96.31
G1 F1800 X76.914 Y67.863 E69.50831
G0 F3600 X76.914 Y68.428
G1 F1800 X105.361 Y96.875 E70.84637
G0 F3600 X105.361 Y97.441
G1 F1800 X76.914 Y68.994 E72.18443
G0 F3600 X76.913 Y69.559
G1 F1800 X105.361 Y98.007 E73.52254
G0 F3600 X105.361 Y98.572
G1 F1800 X76.904 Y70.116 E74.86105
G0 F3600 X76.801 Y70.579
G1 F1800 X105.361 Y99.138 E76.2044
G0 F3600 X105.361 Y99.704
G1 F1800 X76.619 Y70.963 E77.55631
G0 F3600 X76.347 Y71.255
G1 F1800 X105.361 Y100.269 E78.92104
G0 F3600 X105.361 Y100.835
G1 F1800 X76.009 Y71.484 E80.30164
G0 F3600 X75.598 Y71.638
G1 F1800 X105.361 Y101.401 E81.70161
G0 F3600 X105.361 Y101.967
G1 F1800 X75.094 Y71.7 E83.12527
G0 F3600 X74.529 Y71.7
G1 F1800 X105.361 Y102.533 E84.57554
G0 F3600 X105.361 Y103.098
G1 F1800 X73.963 Y71.7 E86.0524
G0 F3600 X73.397 Y71.7
G1 F1800 X105.361 Y103.664 E87.55589
G0 F3600 X105.361 Y104.23
G1 F1800 X72.831 Y71.7 E89.086
G0 F3600 X72.266 Y71.7
G1 F1800 X105.361 Y104.796 E90.64271
G0 F3600 X105.361 Y105.361
G1 F1800 X71.75 Y71.75 E92.22367
G0 F3600 X71.36 Y71.926
G1 F1800 X105.361 Y105.927 E93.82298
G0 F3600 X105.361 Y106.493
G1 F1800 X71.137 Y72.268 E95.43279
G0 F3600 X71.072 Y72.769
G1 F1800 X105.361 Y107.058 E97.04564
G0 F3600 X105.361 Y107.624
G1 F1800 X71.072 Y73.335 E98.65849
G0 F3600 X71.072 Y73.901
G1 F1800 X105.361 Y108.19 E100.27134
G0 F3600 X105.361 Y108.755
G1 F1800 X71.072 Y74.466 E101.88419
G0 F3600 X71.072 Y75.032
G1 F1800 X105.361 Y109.321 E103.49704
G0 F3600 X105.361 Y109.887
G1 F1800 X71.072 Y75.598 E105.10989
G0 F3600 X71.072 Y76.163
G1 F1800 X105.361 Y110.452 E106.72274
G0 F3600 X105.361 Y111.018
G1 F1800 X71.072 Y76.729 E108.33559
G0 F3600 X71.072 Y77.295
G1 F1800 X105.361 Y111.584 E109.94844
G0 F3600 X105.361 Y112.149
G1 F1800 X71.072 Y77.86 E111.56129
G0 F3600 X71.072 Y78.426
G1 F1800 X105.361 Y112.715 E113.17414
G0 F3600 X105.361 Y113.281
G1 F1800 X71.072 Y78.992 E114.78698
G0 F3600 X71.072 Y79.557
G1 F1800 X105.361 Y113.847 E116.39986
G0 F3600 X105.361 Y114.412
G1 F1800 X71.072 Y80.123 E118.01271
G0 F3600 X71.072 Y80.689
G1 F1800 X105.361 Y114.978 E119.62556
G0 F3600 X105.361 Y115.544
G1 F1800 X71.072 Y81.255 E121.23841
G0 F3600 X71.072 Y81.82
G1 F1800 X105.361 Y116.109 E122.85126
G0 F3600 X105.361 Y116.675
G1 F1800 X71.072 Y82.386 E124.4641
G0 F3600 X71.072 Y82.952
G1 F1800 X105.361 Y117.241 E126.07695
G0 F3600 X105.361 Y117.806
G1 F1800 X71.072 Y83.517 E127.6898
G0 F3600 X71.072 Y84.083
G1 F1800 X105.361 Y118.372 E129.30265
G0 F3600 X105.361 Y118.938
G1 F1800 X71.072 Y84.649 E130.9155
G0 F3600 X71.072 Y85.214
G1 F1800 X105.361 Y119.503 E132.52835
G0 F3600 X105.361 Y120.069
G1 F1800 X71.072 Y85.78 E134.1412
G0 F3600 X71.072 Y86.346
G1 F1800 X105.361 Y120.635 E135.75405
G0 F3600 X105.361 Y121.2
G1 F1800 X71.072 Y86.911 E137.3669
G0 F3600 X71.072 Y87.477
G1 F1800 X105.361 Y121.766 E138.97975
G0 F3600 X105.361 Y122.332
G1 F1800 X71.072 Y88.043 E140.5926
G0 F3600 X71.072 Y88.608
G1 F1800 X105.361 Y122.897 E142.20545
G0 F3600 X105.361 Y123.463
G1 F1800 X71.072 Y89.174 E143.8183
G0 F3600 X71.072 Y89.74
G1 F1800 X105.361 Y124.029 E145.43115
G0 F3600 X105.361 Y124.595
G1 F1800 X71.072 Y90.306 E147.044
G0 F3600 X71.072 Y90.871
G1 F1800 X105.361 Y125.16 E148.65685
G0 F3600 X105.361 Y125.726
G1 F1800 X71.072 Y91.437 E150.2697
G0 F3600 X71.072 Y92.003
G1 F1800 X105.361 Y126.292 E151.88255
G0 F3600 X105.361 Y126.857
G1 F1800 X71.072 Y92.568 E153.49539
G0 F3600 X71.072 Y93.134
G1 F1800 X105.361 Y127.423 E155.10824
G0 F3600 X105.361 Y127.989
G1 F1800 X71.072 Y93.7 E156.72109
G0 F3600 X71.072 Y94.265
G1 F1800 X105.361 Y128.554 E158.33394
G0 F3600 X105.361 Y129.12
G1 F1800 X71.072 Y94.831 E159.94679
G0 F3600 X71.072 Y95.397
G1 F1800 X105.361 Y129.686 E161.55964
G0 F3600 X105.361 Y130.251
G1 F1800 X71.072 Y95.962 E163.17249
G0 F3600 X71.072 Y96.528
G1 F1800 X105.361 Y130.817 E164.78534
G0 F3600 X105.451 Y131.473
G1 F1800 X71.072 Y97.094 E166.40242
G0 F3600 X71.072 Y97.659
G1 F1800 X109.233 Y135.82 E168.1974
G0 F3600 X109.798 Y135.82
G1 F1800 X106.507 Y132.528 E168.35222
G0 F3600 X107.183 Y132.639
G1 F1800 X110.364 Y135.82 E168.50185
G0 F3600 X110.93 Y135.82
